X:207
T:Duke of Athole, The
R:Strathspey
B:The Athole Collection
M:C
L:1/8
K:A Minor
E|A>BA>E A/A/A A>B|GDG>B d/c/B/A/ G>B|
A>BA>E A/A/A A>B|G>EB,D E2A,:|
e|a>ea>c A/A/A a2|g>de>g d/c/B/A/ G>e|a>ea>c A/A/A a2|
g>dg>B e2 A>e|a>ea>c A/A/A a2|g>de>g d/c/B/A/ G>B|
A>Ec>A c>de>a|G>EG>B, A,2A,||

